X: 17
T: Sailor's Hymn v.2
P: piffero primo a0688
O: safd
%R: march
F: http://ancients.sudburymuster.org/mus/col/pdf/hymnsF.pdf
Z: 2020 John Chambers <jc:trillian.mit.edu>
M: 4/4
L: 1/4
K: D
D |\
D>D FF | GG FA |\
A^G AE/F/ | EE EC |\
E>E DD | F>F E^G |
F^E FG | F^E FC |\
=C>C B,D | D>D CE |\
FE FD | C>D D :|

% %sep 1 1 200
% %center - - - - - - - - - -
% Whatever we want at the bottom of each set belongs here.
